svg/aws-documentdb.svg

<?xml version="1.0" encoding="UTF-8"?>
<svg xmlns="http://www.w3.org/2000/svg" xmlns:xlink="http://www.w3.org/1999/xlink" width="32" height="32" viewBox="0 0 32 32">
<path fill-rule="nonzero" fill="rgb(100%, 100%, 100%)" fill-opacity="1" d="M 0.203125 0.203125 L 32.203125 0.203125 L 32.203125 32.203125 L 0.203125 32.203125 Z M 0.203125 0.203125 "/>
<path fill-rule="nonzero" fill="rgb(78.823529%, 14.509804%, 81.960784%)" fill-opacity="1" d="M 0.203125 0.203125 L 31.796875 0.203125 L 31.796875 31.796875 L 0.203125 31.796875 Z M 0.203125 0.203125 "/>
<path fill-rule="nonzero" fill="rgb(100%, 100%, 100%)" fill-opacity="1" d="M 13.339844 4.246094 C 17.910156 4.246094 21.101562 5.640625 21.101562 6.898438 C 21.101562 8.148438 17.910156 9.546875 13.339844 9.546875 C 8.765625 9.546875 5.578125 8.148438 5.578125 6.898438 C 5.578125 5.640625 8.765625 4.246094 13.339844 4.246094 M 13.25 27.753906 C 8.730469 27.753906 5.578125 26.324219 5.578125 25.046875 L 5.578125 21.191406 C 6.964844 22.351562 9.777344 23.113281 13.1875 23.113281 C 13.976562 23.113281 14.765625 23.066406 15.542969 22.984375 L 15.445312 22.105469 C 14.699219 22.183594 13.941406 22.230469 13.1875 22.230469 C 8.96875 22.230469 5.945312 20.976562 5.578125 19.765625 L 5.578125 15.003906 C 6.964844 16.160156 9.777344 16.921875 13.1875 16.921875 C 13.992188 16.921875 14.785156 16.878906 15.542969 16.789062 L 15.441406 15.914062 C 14.691406 15.996094 13.941406 16.039062 13.1875 16.039062 C 8.96875 16.039062 5.945312 14.789062 5.578125 13.578125 L 5.578125 8.484375 C 6.859375 9.574219 9.492188 10.429688 13.339844 10.429688 C 17.191406 10.429688 19.824219 9.574219 21.101562 8.484375 L 21.101562 9.988281 L 21.988281 9.988281 L 21.988281 6.898438 C 21.988281 5.183594 18.957031 3.363281 13.339844 3.363281 C 7.722656 3.363281 4.691406 5.183594 4.691406 6.898438 L 4.691406 25.046875 C 4.691406 27.09375 8.371094 28.636719 13.25 28.636719 C 17.167969 28.636719 20.476562 27.605469 21.480469 26.066406 L 20.738281 25.582031 C 20.035156 26.660156 17.230469 27.753906 13.25 27.753906 M 23.851562 16.742188 C 24.101562 16.742188 24.320312 16.839844 24.472656 17.019531 C 24.75 17.351562 24.703125 17.851562 24.675781 18.03125 C 24.6875 18.964844 25.207031 19.148438 25.265625 19.167969 C 25.457031 19.222656 25.589844 19.402344 25.582031 19.601562 C 25.582031 19.800781 25.445312 19.972656 25.253906 20.019531 C 25.207031 20.035156 24.675781 20.222656 24.675781 21.183594 C 24.6875 21.707031 24.4375 22.28125 23.867188 22.296875 L 23.527344 22.296875 L 23.527344 21.414062 L 23.757812 21.414062 C 23.777344 21.339844 23.789062 21.265625 23.789062 21.191406 C 23.789062 20.386719 24.0625 19.894531 24.347656 19.59375 C 24.0625 19.292969 23.789062 18.800781 23.789062 17.996094 C 23.789062 17.96875 23.792969 17.941406 23.796875 17.914062 C 23.8125 17.820312 23.8125 17.695312 23.800781 17.625 L 23.527344 17.625 L 23.527344 16.742188 Z M 21.777344 16.742188 L 22.117188 16.742188 L 22.117188 17.625 L 21.886719 17.625 C 21.863281 17.695312 21.851562 17.769531 21.851562 17.847656 C 21.851562 18.652344 21.582031 19.148438 21.292969 19.445312 C 21.582031 19.746094 21.851562 20.242188 21.851562 21.042969 L 21.84375 21.125 C 21.828125 21.21875 21.828125 21.316406 21.839844 21.414062 L 22.117188 21.414062 L 22.117188 22.296875 L 21.792969 22.296875 C 21.554688 22.304688 21.324219 22.203125 21.167969 22.019531 C 20.894531 21.6875 20.9375 21.1875 20.964844 21.011719 C 20.953125 20.074219 20.433594 19.894531 20.378906 19.875 C 20.183594 19.820312 20.050781 19.640625 20.054688 19.4375 C 20.058594 19.238281 20.195312 19.070312 20.386719 19.023438 C 20.441406 19.003906 20.964844 18.820312 20.964844 17.851562 C 20.953125 17.332031 21.203125 16.757812 21.777344 16.742188 M 26.421875 24.128906 L 18.882812 24.128906 L 18.882812 13.523438 L 23.761719 13.523438 L 23.761719 15.292969 C 23.761719 15.535156 23.960938 15.734375 24.203125 15.734375 L 26.421875 15.734375 Z M 24.648438 13.523438 L 24.757812 13.523438 L 26.09375 14.851562 L 24.648438 14.851562 Z M 27.175781 14.671875 L 25.25 12.769531 C 25.167969 12.6875 25.058594 12.640625 24.941406 12.640625 L 24.484375 12.640625 L 23.117188 11.03125 C 23.03125 10.929688 22.910156 10.871094 22.777344 10.871094 L 16.664062 10.871094 C 16.421875 10.871094 16.222656 11.070312 16.222656 11.3125 L 16.222656 22.804688 C 16.222656 23.046875 16.421875 23.246094 16.664062 23.246094 L 17.550781 23.246094 L 17.550781 22.363281 L 17.109375 22.363281 L 17.109375 11.757812 L 22.570312 11.757812 L 23.324219 12.640625 L 18.4375 12.640625 C 18.195312 12.644531 18 12.839844 17.996094 13.082031 L 17.996094 24.570312 C 17.996094 24.8125 18.195312 25.011719 18.4375 25.011719 L 26.863281 25.011719 C 27.109375 25.011719 27.308594 24.8125 27.308594 24.570312 L 27.308594 14.988281 C 27.308594 14.867188 27.261719 14.753906 27.175781 14.671875 M 27.175781 14.671875 "/>
</svg>

<svg role="img" viewBox="0 0 32 32" height="32" width="32" xmlns="http://www.w3.org/2000/svg"><path d="M.203.203h32v32h-32Zm0 0" fill="rgb(100%, 100%, 100%)"/><path d="M.203.203h31.594v31.594H.203Zm0 0" fill="rgb(78.823529%, 14.509804%, 81.960784%)"/><path d="M13.34 4.246c4.57 0 7.762 1.395 7.762 2.652 0 1.25-3.192 2.649-7.762 2.649-4.574 0-7.762-1.399-7.762-2.649 0-1.257 3.188-2.652 7.762-2.652m-.09 23.508c-4.52 0-7.672-1.43-7.672-2.707V21.19c1.387 1.16 4.2 1.922 7.61 1.922.789 0 1.578-.047 2.355-.129l-.098-.879c-.746.079-1.504.125-2.258.125-4.218 0-7.242-1.253-7.609-2.464v-4.762c1.387 1.156 4.2 1.918 7.61 1.918.804 0 1.597-.043 2.355-.133l-.102-.875c-.75.082-1.5.125-2.254.125-4.218 0-7.242-1.25-7.609-2.46V8.483c1.281 1.09 3.914 1.946 7.762 1.946 3.851 0 6.484-.856 7.762-1.946v1.504h.886v-3.09c0-1.714-3.031-3.535-8.648-3.535-5.617 0-8.649 1.82-8.649 3.535v18.149c0 2.047 3.68 3.59 8.559 3.59 3.918 0 7.227-1.032 8.23-2.57l-.742-.485c-.703 1.078-3.508 2.172-7.488 2.172m10.602-11.012c.25 0 .468.098.62.278.278.332.231.832.204 1.011.012.934.531 1.117.59 1.137a.436.436 0 0 1 .316.434.43.43 0 0 1-.328.418c-.047.015-.578.203-.578 1.164.012.523-.238 1.097-.809 1.113h-.34v-.883h.23a.875.875 0 0 0 .032-.223c0-.804.273-1.296.559-1.597-.285-.301-.559-.793-.559-1.598a.57.57 0 0 1 .008-.082c.015-.094.015-.219.004-.289h-.274v-.883Zm-2.075 0h.34v.883h-.23a.736.736 0 0 0-.035.223c0 .804-.27 1.3-.559 1.597.289.301.559.797.559 1.598l-.008.082a1.026 1.026 0 0 0-.004.29h.277v.882h-.324a.782.782 0 0 1-.625-.277c-.273-.332-.23-.832-.203-1.008-.012-.938-.531-1.117-.586-1.137a.444.444 0 0 1-.324-.437c.004-.2.14-.368.332-.415.054-.02.578-.203.578-1.171-.012-.52.238-1.094.812-1.11m4.645 7.387h-7.54V13.523h4.88v1.77c0 .242.199.441.441.441h2.219Zm-1.774-10.606h.11l1.336 1.329h-1.446Zm2.528 1.149L25.25 12.77a.434.434 0 0 0-.309-.13h-.457l-1.367-1.609a.442.442 0 0 0-.34-.16h-6.113c-.242 0-.441.2-.441.441v11.493c0 .242.199.441.441.441h.887v-.883h-.442V11.758h5.461l.754.883h-4.887a.444.444 0 0 0-.44.441V24.57c0 .242.198.442.44.442h8.426c.246 0 .446-.2.446-.442v-9.582a.44.44 0 0 0-.133-.316m0 0" fill="rgb(100%, 100%, 100%)"/></svg>
